libs/icons/src/svg/lab.svg

<svg width="16" height="16" viewBox="0 0 16 16" fill="none" xmlns="http://www.w3.org/2000/svg">
<path fill-rule="evenodd" clip-rule="evenodd" d="M4 0.666667C4 0.298477 4.29848 0 4.66667 0H11.3333C11.7015 0 12 0.298477 12 0.666667V3.33333C12 3.70152 11.7015 4 11.3333 4H10V7.76204L13.622 12.1892L13.622 12.1892C13.9017 12.5311 14.0786 12.9453 14.1321 13.3837C14.1857 13.8222 14.1137 14.2668 13.9246 14.6659C13.7354 15.0651 13.4368 15.4023 13.0636 15.6385C12.6903 15.8746 12.2577 16 11.816 16H4.18401C3.74231 16 3.30969 15.8746 2.93643 15.6385C2.56317 15.4023 2.26461 15.0651 2.07545 14.6659C1.88629 14.2668 1.81431 13.8222 1.86787 13.3837C1.92143 12.9453 2.09833 12.5311 2.37801 12.1892L2.37802 12.1892L6 7.76204V4H4.66667C4.29848 4 4 3.70152 4 3.33333V0.666667ZM5.33333 1.33333V2.66667H6.66667C7.03486 2.66667 7.33333 2.96514 7.33333 3.33333V8C7.33333 8.15389 7.2801 8.30304 7.18265 8.42214L3.40999 13.0335C3.40999 13.0335 3.40999 13.0335 3.40999 13.0335C3.29013 13.18 3.21431 13.3575 3.19136 13.5454C3.16841 13.7333 3.19926 13.9239 3.28033 14.0949C3.36139 14.266 3.48935 14.4105 3.64932 14.5117C3.80929 14.6129 3.9947 14.6667 4.18399 14.6667H11.816C12.0053 14.6667 12.1907 14.6129 12.3507 14.5117C12.5107 14.4105 12.6386 14.266 12.7197 14.0949C12.8007 13.9239 12.8316 13.7333 12.8086 13.5454C12.7857 13.3575 12.7099 13.18 12.59 13.0335C12.59 13.0335 12.59 13.0335 12.59 13.0335L8.81735 8.42214C8.71991 8.30304 8.66667 8.15389 8.66667 8V3.33333C8.66667 2.96514 8.96514 2.66667 9.33333 2.66667H10.6667V1.33333H5.33333Z" fill="#202327"/>
</svg>

<svg xmlns="http://www.w3.org/2000/svg" viewBox="0 0 16 16" class="sageicon"><path fill-rule="evenodd" d="M4 .667C4 .298 4.298 0 4.667 0h6.666c.368 0 .667.298.667.667v2.666a.667.667 0 0 1-.667.667H10v3.762l3.622 4.427A2.334 2.334 0 0 1 11.816 16H4.184a2.334 2.334 0 0 1-1.806-3.81L6 7.761V4H4.667A.667.667 0 0 1 4 3.333V.667Zm1.333.666v1.334h1.334c.368 0 .666.298.666.666V8a.667.667 0 0 1-.15.422L3.41 13.033a1 1 0 0 0 .774 1.634h7.632a1 1 0 0 0 .774-1.633L8.817 8.421A.667.667 0 0 1 8.667 8V3.333c0-.368.298-.666.666-.666h1.334V1.333H5.333Z"/></svg>
